app/assets/images/quote.svg

<?xml version="1.0" encoding="utf-8"?><!-- Uploaded to: SVG Repo, www.svgrepo.com, Generator: SVG Repo Mixer Tools -->
<svg width="800px" height="800px" viewBox="0 0 16 16" fill="none" xmlns="http://www.w3.org/2000/svg">
<path d="M5.29289 1.29291L6.70711 2.70712L3 6.41423V7.00001H7V14H1V5.5858L5.29289 1.29291Z" fill="currentColor"/>
<path d="M15 7.00001H11V6.41423L14.7071 2.70712L13.2929 1.29291L9 5.5858V14H15V7.00001Z" fill="currentColor"/>
</svg>

<svg xmlns="http://www.w3.org/2000/svg" width="800" height="800" fill="none" viewBox="0 0 16 16"><path fill="currentColor" d="m5.293 1.293 1.414 1.414L3 6.414V7h4v7H1V5.586zM15 7h-4v-.586l3.707-3.707-1.414-1.414L9 5.586V14h6z"/></svg>
